X: 1
T: Memories of Herbie MacLeod
C: Aonghas Grant
N: Simplified version, with the ornaments and articulation omitted.
R: retreat march, waltz
Z: 2014 John Chambers <jc:trillian.mit.edu>
S: handwritten version from Barbara McOwen
B: SRSNH 15.03 January 2003
M: 3/4
L: 1/8
K: G
B>c |\
"G"d2 Bd BG | "C"E2 C2 D>G | "G"B2 G>B dB | "D7"A4 B>c |\
"G"d2 Bd B/A/G | "C"E2 C2 G>A | "G"B2 A>B "D7"cA | "G"G4 :|
|: D>E |\
"G"G2 GB "D7"AB | "G"G2 D2 B,>D | "G"B2 G>B dB | "D7"A4 B>c |\
"G"d2 Bd B/A/G | "C"E2 C2 B>A | "G"B2 A>B "D7"cA | "G"G4 :|
|: D>G |\
"G"B>A Bd B/A/G | "C"E2 C2 DG | "G"B2 AG B/c/d/B/ | "D7"A4 B>c |\
"G"d2 Bd B/A/G | "C"E2 C2 G>A | "G"B2 A>B "D7"cA | "G"G4 :|
|: D>E |\
"G"G2 Dd B/A/G | "C"E2 C2 D>G | "G"B2 G>B dB | "D7"A4 B>c |\
"G"d2 D>E GF | "D"E2 D2 B>c | "G"d2 A>c "D7"BA | "G"G4 :|
